images/usecases/scada/scalability.svg

<svg width="92" height="92" viewBox="0 0 92 92" fill="none" xmlns="http://www.w3.org/2000/svg">
<g clip-path="url(#clip0_10346_26517)">
<g filter="url(#filter0_d_10346_26517)">
<path fill-rule="evenodd" clip-rule="evenodd" d="M46 35C39.9249 35 35 39.9249 35 46C35 52.0751 39.9249 57 46 57C52.0751 57 57 52.0751 57 46C57 39.9249 52.0751 35 46 35ZM46 31C37.7157 31 31 37.7157 31 46C31 54.2843 37.7157 61 46 61C54.2843 61 61 54.2843 61 46C61 37.7157 54.2843 31 46 31Z" fill="#305680"/>
<path fill-rule="evenodd" clip-rule="evenodd" d="M31.5039 62.3359L37.5039 53.3359L42.4962 56.6641L36.4962 65.6641L31.5039 62.3359Z" fill="#305680"/>
<path fill-rule="evenodd" clip-rule="evenodd" d="M37.4805 37.1306L29.2305 24.3806L34.2679 21.1211L42.5179 33.8711L37.4805 37.1306Z" fill="#305680"/>
<path fill-rule="evenodd" clip-rule="evenodd" d="M32.2734 47.4921L22.5234 46.7421L22.9836 40.7598L32.7336 41.5098L32.2734 47.4921Z" fill="#305680"/>
<path d="M67 69.25C67 71.3211 65.3211 73 63.25 73C61.1789 73 59.5 71.3211 59.5 69.25C59.5 67.1789 61.1789 65.5 63.25 65.5C65.3211 65.5 67 67.1789 67 69.25Z" fill="#2A7DEC"/>
<path d="M35.5 22.75C35.5 24.8211 33.8211 26.5 31.75 26.5C29.6789 26.5 28 24.8211 28 22.75C28 20.6789 29.6789 19 31.75 19C33.8211 19 35.5 20.6789 35.5 22.75Z" fill="#2A7DEC"/>
<path d="M26.5 43.75C26.5 45.8211 24.8211 47.5 22.75 47.5C20.6789 47.5 19 45.8211 19 43.75C19 41.6789 20.6789 40 22.75 40C24.8211 40 26.5 41.6789 26.5 43.75Z" fill="#2A7DEC"/>
<path fill-rule="evenodd" clip-rule="evenodd" d="M53 36.75L60.5 30L64.5138 34.4598L57.0138 41.2098L53 36.75Z" fill="#305680"/>
<path fill-rule="evenodd" clip-rule="evenodd" d="M55.8768 53.9219L63.3768 63.6719L58.6211 67.3301L51.1211 57.5801L55.8768 53.9219Z" fill="#305680"/>
<path fill-rule="evenodd" clip-rule="evenodd" d="M31.75 22C31.3358 22 31 22.3358 31 22.75C31 23.1642 31.3358 23.5 31.75 23.5C32.1642 23.5 32.5 23.1642 32.5 22.75C32.5 22.3358 32.1642 22 31.75 22ZM25 22.75C25 19.0221 28.0221 16 31.75 16C35.4779 16 38.5 19.0221 38.5 22.75C38.5 26.4779 35.4779 29.5 31.75 29.5C28.0221 29.5 25 26.4779 25 22.75Z" fill="#2A7DEC"/>
<path fill-rule="evenodd" clip-rule="evenodd" d="M22.75 43C22.3358 43 22 43.3358 22 43.75C22 44.1642 22.3358 44.5 22.75 44.5C23.1642 44.5 23.5 44.1642 23.5 43.75C23.5 43.3358 23.1642 43 22.75 43ZM16 43.75C16 40.0221 19.0221 37 22.75 37C26.4779 37 29.5 40.0221 29.5 43.75C29.5 47.4779 26.4779 50.5 22.75 50.5C19.0221 50.5 16 47.4779 16 43.75Z" fill="#2A7DEC"/>
<path fill-rule="evenodd" clip-rule="evenodd" d="M31.5 65C29.567 65 28 66.567 28 68.5C28 70.433 29.567 72 31.5 72C33.433 72 35 70.433 35 68.5C35 66.567 33.433 65 31.5 65ZM31.5 61C27.3579 61 24 64.3579 24 68.5C24 72.6421 27.3579 76 31.5 76C35.6421 76 39 72.6421 39 68.5C39 64.3579 35.6421 61 31.5 61Z" fill="#305680"/>
<path fill-rule="evenodd" clip-rule="evenodd" d="M63.25 68.5C62.8358 68.5 62.5 68.8358 62.5 69.25C62.5 69.6642 62.8358 70 63.25 70C63.6642 70 64 69.6642 64 69.25C64 68.8358 63.6642 68.5 63.25 68.5ZM56.5 69.25C56.5 65.5221 59.5221 62.5 63.25 62.5C66.9779 62.5 70 65.5221 70 69.25C70 72.9779 66.9779 76 63.25 76C59.5221 76 56.5 72.9779 56.5 69.25Z" fill="#2A7DEC"/>
<path fill-rule="evenodd" clip-rule="evenodd" d="M67 23C64.2386 23 62 25.2386 62 28C62 30.7614 64.2386 33 67 33C69.7614 33 72 30.7614 72 28C72 25.2386 69.7614 23 67 23ZM67 19C62.0294 19 58 23.0294 58 28C58 32.9706 62.0294 37 67 37C71.9706 37 76 32.9706 76 28C76 23.0294 71.9706 19 67 19Z" fill="#305680"/>
</g>
</g>
<path d="M0.75 24C0.75 11.1594 11.1594 0.75 24 0.75H68C80.8406 0.75 91.25 11.1594 91.25 24V68C91.25 80.8406 80.8406 91.25 68 91.25H24C11.1594 91.25 0.75 80.8406 0.75 68V24Z" stroke="#3E9AF8" stroke-width="1.5"/>
<defs>
<filter id="filter0_d_10346_26517" x="-4" y="6" width="100" height="100" filterUnits="userSpaceOnUse" color-interpolation-filters="sRGB">
<feFlood flood-opacity="0" result="BackgroundImageFix"/>
<feColorMatrix in="SourceAlpha" type="matrix" values="0 0 0 0 0 0 0 0 0 0 0 0 0 0 0 0 0 0 127 0" result="hardAlpha"/>
<feOffset dy="10"/>
<feGaussianBlur stdDeviation="10"/>
<feColorMatrix type="matrix" values="0 0 0 0 0 0 0 0 0 0 0 0 0 0 0 0 0 0 0.1 0"/>
<feBlend mode="normal" in2="BackgroundImageFix" result="effect1_dropShadow_10346_26517"/>
<feBlend mode="normal" in="SourceGraphic" in2="effect1_dropShadow_10346_26517" result="shape"/>
</filter>
<clipPath id="clip0_10346_26517">
<path d="M0 24C0 10.7452 10.7452 0 24 0H68C81.2548 0 92 10.7452 92 24V68C92 81.2548 81.2548 92 68 92H24C10.7452 92 0 81.2548 0 68V24Z" fill="white"/>
</clipPath>
</defs>
</svg>

<svg width="92" height="92" fill="none" xmlns="http://www.w3.org/2000/svg"><g filter="url(#b)" clip-path="url(#a)"><path fill-rule="evenodd" clip-rule="evenodd" d="M46 35c-6.075 0-11 4.925-11 11s4.925 11 11 11 11-4.925 11-11-4.925-11-11-11Zm0-4c-8.284 0-15 6.716-15 15 0 8.284 6.716 15 15 15 8.284 0 15-6.716 15-15 0-8.284-6.716-15-15-15Z" fill="#305680"/><path fill-rule="evenodd" clip-rule="evenodd" d="m31.504 62.336 6-9 4.992 3.328-6 9-4.992-3.328ZM37.48 37.13l-8.25-12.75 5.038-3.259 8.25 12.75-5.038 3.26ZM32.273 47.492l-9.75-.75.46-5.982 9.75.75-.46 5.982Z" fill="#305680"/><path d="M67 69.25a3.75 3.75 0 1 1-7.5 0 3.75 3.75 0 0 1 7.5 0ZM35.5 22.75a3.75 3.75 0 1 1-7.5 0 3.75 3.75 0 0 1 7.5 0ZM26.5 43.75a3.75 3.75 0 1 1-7.5 0 3.75 3.75 0 0 1 7.5 0Z" fill="#2A7DEC"/><path fill-rule="evenodd" clip-rule="evenodd" d="M53 36.75 60.5 30l4.014 4.46-7.5 6.75L53 36.75ZM55.877 53.922l7.5 9.75-4.756 3.658-7.5-9.75 4.756-3.658Z" fill="#305680"/><path fill-rule="evenodd" clip-rule="evenodd" d="M31.75 22a.75.75 0 1 0 0 1.5.75.75 0 0 0 0-1.5Zm-6.75.75a6.75 6.75 0 1 1 13.5 0 6.75 6.75 0 0 1-13.5 0ZM22.75 43a.75.75 0 1 0 0 1.5.75.75 0 0 0 0-1.5Zm-6.75.75a6.75 6.75 0 1 1 13.5 0 6.75 6.75 0 0 1-13.5 0Z" fill="#2A7DEC"/><path fill-rule="evenodd" clip-rule="evenodd" d="M31.5 65a3.5 3.5 0 1 0 0 7 3.5 3.5 0 0 0 0-7Zm0-4a7.5 7.5 0 1 0 0 15 7.5 7.5 0 0 0 0-15Z" fill="#305680"/><path fill-rule="evenodd" clip-rule="evenodd" d="M63.25 68.5a.75.75 0 1 0 0 1.5.75.75 0 0 0 0-1.5Zm-6.75.75a6.75 6.75 0 1 1 13.5 0 6.75 6.75 0 0 1-13.5 0Z" fill="#2A7DEC"/><path fill-rule="evenodd" clip-rule="evenodd" d="M67 23a5 5 0 1 0 0 10 5 5 0 0 0 0-10Zm0-4a9 9 0 1 0 0 18 9 9 0 0 0 0-18Z" fill="#305680"/></g><path d="M.75 24C.75 11.16 11.16.75 24 .75h44C80.84.75 91.25 11.16 91.25 24v44c0 12.84-10.41 23.25-23.25 23.25H24C11.16 91.25.75 80.84.75 68V24Z" stroke="#3E9AF8" stroke-width="1.5"/><defs><clipPath id="a"><path d="M0 24C0 10.745 10.745 0 24 0h44c13.255 0 24 10.745 24 24v44c0 13.255-10.745 24-24 24H24C10.745 92 0 81.255 0 68V24Z" fill="#fff"/></clipPath><filter id="b" x="-4" y="6" width="100" height="100" filterUnits="userSpaceOnUse" color-interpolation-filters="sRGB"><feFlood flood-opacity="0" result="BackgroundImageFix"/><feColorMatrix in="SourceAlpha" values="0 0 0 0 0 0 0 0 0 0 0 0 0 0 0 0 0 0 127 0" result="hardAlpha"/><feOffset dy="10"/><feGaussianBlur stdDeviation="10"/><feColorMatrix values="0 0 0 0 0 0 0 0 0 0 0 0 0 0 0 0 0 0 0.1 0"/><feBlend in2="BackgroundImageFix" result="effect1_dropShadow_10346_26517"/><feBlend in="SourceGraphic" in2="effect1_dropShadow_10346_26517" result="shape"/></filter></defs></svg>
